X:1
T:King Pharim
M:4/4
L:1/8
K:C
G-F| E2E-D E2E-D| E2-E-D C2 C2| D2 D2 G2G-F| E4 z2| G2| A3 GF-ED-C|\
 E3- F G2 c2| A3 F D2 B,2| C6||
